X: 21621
T: Killavil Postman, The
R: barndance
M: 4/4
K: Gmajor
|:B/c/^c|d2 g2 g2 e2|dedB GEDE|G2 GG G2 A2|B4- B2 B/c/^c|
d2 g2 g2 e2|dedB G2 Bd|e2 a2 a2 b2|a4- a2 ef|
g2 b2 g2 e2|dedB GEDE|G2 GG G2 A2|B4- B4|
e3 B cBAz|d3 B cBAz|D2 G2 G2 A2|G4- G2:|
z2|b3 f gfez|b3 f gfez|b2 bb b2 c’2|b4- b4|
a3 e fedz|a3 e fedz|a2 aa a2 b2|f4- f4|
b3 f gfez|b3 f gfez|b2 bb b2 c’2|b4- b2 ga|
b2 b2 a2 a2|g2 g2 f4|fgag fgag|f2 e2 d2||

